X:7008
T:Golden Slippers
T:Dem Golden Slippers
R:Reel
C:James A. Bland (1879)
O:USA
M:4/4
L:1/4
Q:1/4=200
K:D
d/e/|"D"ff f/e/d/e/|ff fd/e/|ff gf|"A7"fe ec/d/|
"A"ee/f/ e/d/c/d/|ee/f/ ec/d/|eg fe|"D"ed d:|
|:B|"D"A3d/e/|fe d=c|"G"B3e/f/|"Em"gf ed|"A"^c>Bcd|
|1"A"e>fec|"D"d3/2c/ de|fd"A7"c:|2"A"e2 g2|ff/g/ fe|"D"d3|]

